_images/SocialNetwork/twitter.svg

<svg width="30" height="30" viewBox="0 0 30 30" fill="none" xmlns="http://www.w3.org/2000/svg">
<path d="M15 30C23.2843 30 30 23.2843 30 15C30 6.71573 23.2843 0 15 0C6.71573 0 0 6.71573 0 15C0 23.2843 6.71573 30 15 30Z" fill="#2CBDE2"/>
<path d="M8.37305 9.50392C8.37305 9.50392 10.752 12.1934 14.6895 12.6328C14.6895 12.6328 14.502 10.3828 16.5 9.12892C16.5 9.12892 18.5625 7.75197 20.127 9.75588C20.127 9.75588 21.627 9.44533 22.1895 9.07033C22.1895 9.07033 21.75 9.91994 21 10.6524L22.6875 10.3184L21.123 12.0059C21.123 12.0059 21.75 17.6953 15.5273 20.6953C15.5273 20.6953 10.6816 22.4473 7.30664 20.1328C7.30664 20.1328 11.4316 19.5059 11.8711 18.5684C11.8711 18.5684 9.67969 18.3164 9.11719 16.4414L10.3066 16.377C10.3066 16.377 8.24414 16.1895 7.99219 13.2481L9.36914 13.4356C9.375 13.4414 7.18359 12.8203 8.37305 9.50392Z" fill="white"/>
</svg>

<svg xmlns="http://www.w3.org/2000/svg" width="30" height="30" fill="none"><path fill="#2CBDE2" d="M15 30c8.284 0 15-6.716 15-15 0-8.284-6.716-15-15-15C6.716 0 0 6.716 0 15c0 8.284 6.716 15 15 15Z"/><path fill="#fff" d="M8.373 9.504s2.379 2.69 6.317 3.129c0 0-.188-2.25 1.81-3.504 0 0 2.063-1.377 3.627.627 0 0 1.5-.31 2.063-.686 0 0-.44.85-1.19 1.582l1.688-.334-1.565 1.688s.627 5.69-5.596 8.69c0 0-4.845 1.751-8.22-.563 0 0 4.125-.627 4.564-1.565 0 0-2.191-.252-2.754-2.127l1.19-.064s-2.063-.188-2.315-3.129l1.377.188c.006.005-2.185-.616-.996-3.932Z"/></svg>
